build/img/icon-quote.svg

<svg width="16" height="12" viewBox="0 0 16 12" fill="none" xmlns="http://www.w3.org/2000/svg">
<path d="M11.9763 0C13.0178 0 13.9487 0.46473 14.7692 1.39419C15.5897 2.32365 16 3.65145 16 5.37759C16 7.3361 15.4951 8.92946 14.4852 10.1577C13.4753 11.3859 12.071 12 10.2722 12C9.67258 12 9.18343 11.9502 8.80473 11.8506V9.85892C9.15187 9.92531 9.64103 9.95851 10.2722 9.95851C11.5345 9.95851 12.4024 9.41079 12.8757 8.31535C13.3176 7.61826 13.5385 6.78838 13.5385 5.82573C13.1598 6.32365 12.5602 6.57262 11.7396 6.57262C10.8876 6.57262 10.1775 6.27386 9.60947 5.67635C9.00986 5.07884 8.71006 4.29876 8.71006 3.3361C8.71006 2.37344 9.00986 1.57676 9.60947 0.946058C10.2091 0.315353 10.998 0 11.9763 0ZM3.26627 0C4.30769 0 5.23866 0.46473 6.05917 1.39419C6.87968 2.32365 7.28994 3.65145 7.28994 5.37759C7.28994 7.3361 6.78501 8.92946 5.77515 10.1577C4.76529 11.3859 3.36095 12 1.56213 12C0.962525 12 0.473373 11.9502 0.0946751 11.8506V9.85892C0.441815 9.92531 0.930967 9.95851 1.56213 9.95851C2.82446 9.95851 3.69231 9.41079 4.16568 8.31535C4.6075 7.61826 4.8284 6.78838 4.8284 5.82573C4.4497 6.32365 3.8501 6.57262 3.02959 6.57262C2.17752 6.57262 1.46746 6.27386 0.899409 5.67635C0.299804 5.07884 0 4.29876 0 3.3361C0 2.37344 0.299804 1.57676 0.899409 0.946058C1.49901 0.315353 2.28797 0 3.26627 0Z" fill="#FFDD2D"/>
</svg>

<svg width="16" height="12" fill="none" xmlns="http://www.w3.org/2000/svg"><path d="M11.976 0c1.042 0 1.973.465 2.793 1.394.82.93 1.231 2.257 1.231 3.984 0 1.958-.505 3.551-1.515 4.78C13.475 11.386 12.071 12 10.272 12c-.6 0-1.089-.05-1.467-.15V9.86c.347.066.836.1 1.467.1 1.262 0 2.13-.548 2.604-1.644.442-.697.663-1.527.663-2.49-.38.499-.979.748-1.8.748-.851 0-1.562-.3-2.13-.897-.6-.597-.899-1.377-.899-2.34 0-.963.3-1.76.9-2.39.6-.63 1.388-.946 2.366-.946zm-8.71 0C4.308 0 5.24.465 6.06 1.394c.82.93 1.23 2.257 1.23 3.984 0 1.958-.504 3.551-1.514 4.78C4.765 11.386 3.361 12 1.562 12c-.6 0-1.089-.05-1.467-.15V9.86c.347.066.836.1 1.467.1 1.262 0 2.13-.548 2.604-1.644.441-.697.662-1.527.662-2.49-.378.499-.978.748-1.798.748-.852 0-1.563-.3-2.13-.897C.3 5.08 0 4.3 0 3.336c0-.963.3-1.76.9-2.39C1.498.316 2.287 0 3.265 0z" fill="#FFDD2D"/></svg>
